assets/icons/qvision/crop_landscape.svg

<svg xmlns="http://www.w3.org/2000/svg" height="24" viewBox="0 0 24 24" width="24"><path d="M0 0h24v24H0z" fill="none"/><path d="M19 5H5c-1.1 0-2 .9-2 2v10c0 1.1.9 2 2 2h14c1.1 0 2-.9 2-2V7c0-1.1-.9-2-2-2zm0 12H5V7h14v10z"/></svg>

<svg width="24" height="24" viewBox="0 0 24 24" fill="none" xmlns="http://www.w3.org/2000/svg">
<g clip-path="url(#clip0_147_3345)">
<path d="M19 5H5C3.9 5 3 5.9 3 7V17C3 18.1 3.9 19 5 19H19C20.1 19 21 18.1 21 17V7C21 5.9 20.1 5 19 5ZM19 17H5V7H19V17Z" fill="#323232"/>
</g>
<defs>
<clipPath id="clip0_147_3345">
<rect width="24" height="24" fill="white"/>
</clipPath>
</defs>
</svg>
